!!!OTL: Lust'ge Vögel
**kern	**text	**text	**kern	**text	**text	**kern	**text	**text	**text	**text
*part3	*part3	*part3	*part2	*part2	*part2	*part1	*part1	*part1	*part1	*part1
*staff3	*staff3	*staff3	*staff2	*staff2	*staff2	*staff1	*staff1	*staff1	*staff1	*staff1
*I"Bariton	*	*	*I"Alt	*	*	*I"Sopran	*	*	*	*
*clefF4	*	*	*clefG2	*	*	*clefG2	*	*	*	*
*k[b-e-]	*	*	*k[b-e-]	*	*	*k[b-e-]	*	*	*	*
*B-:	*	*	*B-:	*	*	*B-:	*	*	*	*
*M4/4	*	*	*M4/4	*	*	*M4/4	*	*	*	*
*met(c)	*	*	*met(c)	*	*	*met(c)	*	*	*	*
=1	=1	=1	=1	=1	=1	=1	=1	=1	=1	=1
*	*	*	*	*	*	*^	*	*	*	*
!	!	!	!	!	!	!LO:TX:a:B:t=Allegretto	!	!	!	!	!
4.B-	Lust-	Und	4.d	Lust-	Und	4.dd	4.f	Lust-	Und	.	.
8B-	-ge	kaum	8d	-ge	kaum	8b-	8f	-ge	kaum	.	.
4B-	Vö-	ging	4e-	Vö-	ging	4g	4e-	Vö-	ging	.	.
4B-	-gel	ich	4d	-gel	ich	4f	4f	-gel	ich	.	.
=2	=2	=2	=2	=2	=2	=2	=2	=2	=2	=2	=2
4B-	in	ü-	4e-	in	ü-	4g	4g	in	ü-	.	.
4B-	dem	-ber	4e-	dem	-ber	4f	4f	dem	-ber	.	.
2B-	Wald,	Land,	2d	Wald,	Land,	2b-	2f	Wald,	Land,	.	.
=3	=3	=3	=3	=3	=3	=3	=3	=3	=3	=3	=3
4.D	singt,	frisch	4.Bn	singt,	frisch	4.ff	4.a-X	singt,	frisch	.	.
8D	so	durch	8B	so	durch	8ff	8a-	so	durch	.	.
4E-	lang	Lust	4c	lang	Lust	4ee-	4g	lang	Lust	.	.
4F	es	und	4d	es	und	4dd	4b-	es	und	.	.
=4	=4	=4	=4	=4	=4	=4	=4	=4	=4	=4	=4
1G	grün	Not	2e-	grün	Not	1cc	1b-	grün	Not	.	.
.	.	.	2en	.	.	.	.	.	.	.	.
=5	=5	=5	=5	=5	=5	=5	=5	=5	=5	=5	=5
4.F	ach,	wan-	4.f	ach,	wan-	4.ee-	4.a	ach,	wan-	.	.
8F	wer	-delt’	8e-	wer	-delt’	8cc	8g	wer	-delt’	.	.
4F	weiß,	al-	4d	weiß,	al-	4b-	4f	weiß,	al-	.	.
4F	wie	-les,	4c	wie	-les,	4a	4e-	wie	-les,	.	.
=6	=6	=6	=6	=6	=6	=6	=6	=6	=6	=6	=6
4F#X	bald,	und	4c	bald,	und	4b-	4e-	bald,	und	.	.
4F#	wie	ich	4c	wie	ich	4a	4e-	wie	ich	.	.
2G	bald	stand	2B-	bald	stand	2dd	2d	bald	stand	.	.
=7	=7	=7	=7	=7	=7	=7	=7	=7	=7	=7	=7
4.A	al-	müd’	4.d	al-	müd’	4.ff	4.d	al-	müd’	.	.
8A	-les	im	8d	-les	im	8een	8d	-les	im	.	.
4B-	muß	A-	4d	muß	A-	4dd	4g	muß	A-	.	.
4G	ver-	-bend-	4g	ver-	-bend-	4ee	4b-	ver-	-bend-	.	.
=8	=8	=8	=8	=8	=8	=8	=8	=8	=8	=8	=8
(2A	-blühn.	-rot.	(2en	-blühn.	-rot.	(2cc#X	4a	-blühn.	-rot.	.	.
.	.	.	.	.	.	.	4g	.	.	.	.
4D)	.	.	4d)	.	.	4dd)	4f	.	.	.	.
4r	.	.	4r	.	.	4raa	4rc	.	.	.	.
=9	=9	=9	=9	=9	=9	=9	=9	=9	=9	=9	=9
2r	.	.	2r	.	.	4.ff	2rc	.	.	Sah	Und
.	.	.	.	.	.	8ee-	.	.	.	ich’s	die
4.A-X	Sah	Und	4.d	Sah	Und	4dd	4.f	Sah	Und	doch	Lüf-
.	.	.	.	.	.	4cc	.	.	.	vom	-te
8A-	ich’s	die	8d	ich’s	die	.	8f	ich’s	die	.	.
=10	=10	=10	=10	=10	=10	=10	=10	=10	=10	=10	=10
4.A-X	doch	Lüf-	4.d	doch	Lüf-	4.cc	4.f	doch	Lüf-	Ber-	we-
8G	vom	-te	8d	vom	-te	8bn	8f	vom	-te	-ge	-hen
4G	Berg	wehn	4d	Berg	wehn	2b-X	4f	Berg	wehn	einst	kalt
4G	einst	kalt	4d	einst	kalt	.	4f	einst	kalt	.	.
=11	=11	=11	=11	=11	=11	=11	=11	=11	=11	=11	=11
4G	glän-	ü-	4c	glän-	ü-	4cc	4e-	glän-	ü-	.	.
4F	-zen	-ber’s	4d	-zen	-ber’s	4bn	4f	-zen	-ber’s	.	.
4E-	ü-	fal-	4c	ü-	fal-	4cc	4g	ü-	fal-	.	.
4D	-ber-	-be	4Bn	-ber-	-be	4dd	4f	-ber-	-be	.	.
=12	=12	=12	=12	=12	=12	=12	=12	=12	=12	=12	=12
2.C	-all	Grün,	(2Bn	-all	Grün,	(2ff	[2g	-all,	Grün,	.	.
.	.	.	4c)	.	.	4ee-)	4g]	.	.	.	.
4r	.	.	4r	.	.	4raa	4rc	.	.	.	.
=13	=13	=13	=13	=13	=13	=13	=13	=13	=13	=13	=13
4c	wuß-	Vög-	4e-	wuß-	Vög-	4a	4g-X	wuß-	Vög-	.	.
4B-	-te	-lein,	4e-	-te	-lein,	4b-	4g-	-te	-lein,	.	.
4.A	kaum,	eu-	4.e-	kaum,	eu-	4.dd	4.g-	kaum,	eu-	.	.
8A	war-	-er	8e-	war-	-er	8cc	8g-	war-	-er	.	.
=14	=14	=14	=14	=14	=14	=14	=14	=14	=14	=14	=14
4A	-um	Ab-	4e-	-um	Ab-	4cc	4g-X	-um	Ab-	.	.
4B-	du	-schied	4e-	du	-schied	4b-	4g-	du	-schied	.	.
2c	weinst,	hallt	2e-	weinst,	hallt	2a	2f	weinst,	hallt	.	.
=15	=15	=15	=15	=15	=15	=15	=15	=15	=15	=15	=15
!	!	!	!	!	!	!LO:TX:a:i:t=a tempo	!	!	!	!	!
(4B-	hol-	könnt’	2.d	hol-	könnt’	4ff	4a-X	hol-	könnt’	.	.
4F)	.	.	.	.	.	4dd	4a-	-de	ich	.	.
(4E-	-de	ich	.	.	.	4cc	4a-	Nach-	mit	.	.
4D)	.	.	4f	-de	ich	4b-	4f	-ti-	euch	.	.
=16	=16	=16	=16	=16	=16	=16	=16	=16	=16	=16	=16
2C	Nach-	mit	[4e-	Nach-	mit	1b-	2a-X	-gall,	ziehn,	.	.
.	.	.	4e-]	-ti-	euch	.	.	.	.	.	.
2BB-	-ti-	euch	2d	-gall,	ziehn,	.	2a-	.	.	.	.
=17	=17	=17	=17	=17	=17	=17	=17	=17	=17	=17	=17
4E-	-gall.-	ziehn,	4g	wuß-	Vög-	4b-	4b-	wuß-	Vög-	.	.
4r	.	.	4f#X	-te	-lein	4a	4a	-te	-lein	.	.
4r	.	.	4g	kaum,	eu-	4b-	4b-	kaum,	eu-	.	.
4D	-wa-	der	4fn	wa-	-er	4bn	4b	wa-	-er	.	.
=18	=18	=18	=18	=18	=18	=18	=18	=18	=18	=18	=18
4F	-um	Ab-	4Bn	-um	Ab-	4dd	4a-X	-um	Ab-	.	.
4E-	du	-schied	4c	du	-schied	4cc	4g	du	-schied	.	.
2En	weinst,	hallt,	2d-X	weinst,	hallt,	2gg	2b-X	weinst,	hallt,	.	.
=19	=19	=19	=19	=19	=19	=19	=19	=19	=19	=19	=19
2.F	hol-	könnt’	2dn	hol-	könnt’	(2ff	2.b-	hol-	könnt’	.	.
.	.	.	2g	.	.	4b-)	.	.	.	.	.
4F	-de	ich	.	.	.	4ee-	4b-	-de	ich	.	.
=20	=20	=20	=20	=20	=20	=20	=20	=20	=20	=20	=20
4.F	Nach-	mit	4.e-	-Nach-	mit	4.dd	4.a	Nach-	mit	.	.
8F	-ti-	euch	8e-	-ti-	euch	8cc	8a	-ti-	euch	.	.
4BB-	-gall.-	ziehn,	4d	-gall.-	ziehn,	4b-	4b-	-gall.-	ziehn,	.	.
4r	.	.	4r	.	.	4raa	4rc	.	.	.	.
=:|!21	=:|!21	=:|!21	=:|!21	=:|!21	=:|!21	=:|!21	=:|!21	=:|!21	=:|!21	=:|!21	=:|!21
!	!	!	!	!	!	!LO:TX:a:t=Schluß	!	!	!	!	!
4.B-	-Könnt’	.	4.c#X	-Könnt’	.	4.an	4.en	-Könnt’	.	.	.
8B-	ich	.	8c#	ich	.	8g	8e	ich	.	.	.
4B-	mit,	.	4d	mit,	.	4f	4d	mit,	.	.	.
4r	.	.	4r	.	.	4raa	4rc	.	.	.	.
=22	=22	=22	=22	=22	=22	=22	=22	=22	=22	=22	=22
4.B-	könnt’	.	4.c#X	könnt’	.	4.b-	4.en	könnt’	.	.	.
8B-	ich	.	8c#	ich	.	8g	8e	ich	.	.	.
4B-	mit,	.	4d	mit,	.	4f	4f	mit,	.	.	.
4r	.	.	4r	.	.	4raa	4rc	.	.	.	.
=23	=23	=23	=23	=23	=23	=23	=23	=23	=23	=23	=23
2.BB-	mit	.	4.d	könnt’	.	4.ff	4.b-	könnt’	.	.	.
.	.	.	8f	ich	.	8dd	8b-	ich	.	.	.
.	.	.	4.f	mit	.	4.dd	4.b-	mit	.	.	.
4BB-	dir	.	.	.	.	.	.	.	.	.	.
.	.	.	8d	dir	.	8b-	8f	dir	.	.	.
=24	=24	=24	=24	=24	=24	=24	=24	=24	=24	=24	=24
1BB-;	ziehn!	.	1d;	ziehn!	.	1b-;	1f;	ziehn!	.	.	.
*	*	*	*	*	*	*v	*v	*	*	*	*
==	==	==	==	==	==	==	==	==	==	==
*-	*-	*-	*-	*-	*-	*-	*-	*-	*-	*-
!!!system-decoration: [(s1,s2,s3)]